src/images/instagram.svg

<svg fill="none" height="30" viewBox="0 0 30 30" width="30" xmlns="http://www.w3.org/2000/svg"><g fill="#fff"><path d="m14.995 4.75198c3.3383 0 3.7302.01488 5.0496.07441 1.2203.05456 1.88.25793 2.3215.43154.5853.22818 1.002.49603 1.4385.93254s.7093.85318.9325 1.43849c.1687.44147.377 1.10119.4316 2.32143.0595 1.31941.0744 1.71131.0744 5.04961s-.0149 3.7301-.0744 5.0496c-.0546 1.2202-.258 1.8799-.4316 2.3214-.2282.5853-.496 1.002-.9325 1.4385s-.8532.7093-1.4385.9325c-.4415.1687-1.1012.377-2.3215.4316-1.3194.0595-1.7113.0744-5.0496.0744s-3.7301-.0149-5.04956-.0744c-1.22024-.0546-1.87996-.258-2.32143-.4316-.58532-.2281-1.00199-.496-1.43849-.9325-.43651-.4365-.70933-.8532-.93254-1.4385-.16865-.4415-.37699-1.1012-.43155-2.3214-.05953-1.3195-.07441-1.7113-.07441-5.0496s.01488-3.7302.07441-5.04961c.05456-1.22024.25794-1.87996.43155-2.32143.22817-.58531.49603-1.00198.93254-1.43849.4365-.43651.85317-.70932 1.43849-.93254.44147-.16865 1.10119-.37698 2.32143-.43154 1.31946-.06449 1.71626-.07441 5.04956-.07441zm0-2.25198c-3.3928 0-3.8194.01488-5.15373.0744-1.32937.05953-2.2371.27282-3.03075.58036-.82342.31746-1.51786.74901-2.21231 1.44345-.69444.69445-1.12103 1.39385-1.44345 2.2123-.30754.79365-.52083 1.70139-.58036 3.03571-.05952 1.32938-.0744 1.75598-.0744 5.14878 0 3.3929.01488 3.8195.0744 5.1538.05953 1.3294.27282 2.2371.58036 3.0357.31746.8234.74901 1.5179 1.44345 2.2123.69445.6944 1.39385 1.121 2.21231 1.4435.79365.3075 1.70139.5208 3.03571.5803 1.33437.0595 1.75597.0744 5.15377.0744s3.8194-.0149 5.1538-.0744c1.3293-.0595 2.2371-.2728 3.0357-.5803.8234-.3175 1.5178-.7491 2.2123-1.4435.6944-.6944 1.121-1.3938 1.4434-2.2123.3076-.7936.5209-1.7014.5804-3.0357s.0744-1.756.0744-5.1538-.0149-3.8194-.0744-5.15374c-.0595-1.32936-.2728-2.2371-.5804-3.03571-.3174-.82341-.749-1.51785-1.4434-2.2123-.6945-.69444-1.3939-1.12103-2.2123-1.44345-.7937-.30754-1.7014-.52083-3.0357-.58036-1.3393-.05456-1.7659-.06944-5.1588-.06944z"/><path d="m14.9951 8.58154c-3.5417 0-6.41867 2.87206-6.41867 6.41866s2.87207 6.4186 6.41867 6.4186 6.4186-2.872 6.4186-6.4186-2.872-6.41866-6.4186-6.41866zm0 10.58036c-2.3016 0-4.1667-1.8651-4.1667-4.1667s1.8651-4.1666 4.1667-4.1666 4.1666 1.865 4.1666 4.1666-1.865 4.1667-4.1666 4.1667z"/><path d="m21.6668 9.82122c.8273 0 1.498-.67068 1.498-1.49801s-.6707-1.49801-1.498-1.49801c-.8274 0-1.4981.67068-1.4981 1.49801s.6707 1.49801 1.4981 1.49801z"/></g></svg>

<svg width="30" height="30" viewBox="0 0 30 30" fill="none" xmlns="http://www.w3.org/2000/svg">
<path d="M14.995 4.75198C18.3333 4.75198 18.7252 4.76686 20.0446 4.82639C21.2649 4.88095 21.9246 5.08432 22.3661 5.25793C22.9514 5.48611 23.3681 5.75396 23.8046 6.19047C24.2411 6.62698 24.5139 7.04365 24.7371 7.62896C24.9058 8.07043 25.1141 8.73015 25.1687 9.95039C25.2282 11.2698 25.2431 11.6617 25.2431 15C25.2431 18.3383 25.2282 18.7301 25.1687 20.0496C25.1141 21.2698 24.9107 21.9295 24.7371 22.371C24.5089 22.9563 24.2411 23.373 23.8046 23.8095C23.3681 24.246 22.9514 24.5188 22.3661 24.742C21.9246 24.9107 21.2649 25.119 20.0446 25.1736C18.7252 25.2331 18.3333 25.248 14.995 25.248C11.6567 25.248 11.2649 25.2331 9.94544 25.1736C8.7252 25.119 8.06548 24.9156 7.62401 24.742C7.03869 24.5139 6.62202 24.246 6.18552 23.8095C5.74901 23.373 5.47619 22.9563 5.25298 22.371C5.08433 21.9295 4.87599 21.2698 4.82143 20.0496C4.7619 18.7301 4.74702 18.3383 4.74702 15C4.74702 11.6617 4.7619 11.2698 4.82143 9.95039C4.87599 8.73015 5.07937 8.07043 5.25298 7.62896C5.48115 7.04365 5.74901 6.62698 6.18552 6.19047C6.62202 5.75396 7.03869 5.48115 7.62401 5.25793C8.06548 5.08928 8.7252 4.88095 9.94544 4.82639C11.2649 4.7619 11.6617 4.75198 14.995 4.75198ZM14.995 2.5C11.6022 2.5 11.1756 2.51488 9.84127 2.5744C8.5119 2.63393 7.60417 2.84722 6.81052 3.15476C5.9871 3.47222 5.29266 3.90377 4.59821 4.59821C3.90377 5.29266 3.47718 5.99206 3.15476 6.81051C2.84722 7.60416 2.63393 8.5119 2.5744 9.84622C2.51488 11.1756 2.5 11.6022 2.5 14.995C2.5 18.3879 2.51488 18.8145 2.5744 20.1488C2.63393 21.4782 2.84722 22.3859 3.15476 23.1845C3.47222 24.0079 3.90377 24.7024 4.59821 25.3968C5.29266 26.0912 5.99206 26.5178 6.81052 26.8403C7.60417 27.1478 8.51191 27.3611 9.84623 27.4206C11.1806 27.4801 11.6022 27.495 15 27.495C18.3978 27.495 18.8194 27.4801 20.1538 27.4206C21.4831 27.3611 22.3909 27.1478 23.1895 26.8403C24.0129 26.5228 24.7073 26.0912 25.4018 25.3968C26.0962 24.7024 26.5228 24.003 26.8452 23.1845C27.1528 22.3909 27.3661 21.4831 27.4256 20.1488C27.4851 18.8145 27.5 18.3928 27.5 14.995C27.5 11.5972 27.4851 11.1756 27.4256 9.84126C27.3661 8.5119 27.1528 7.60416 26.8452 6.80555C26.5278 5.98214 26.0962 5.2877 25.4018 4.59325C24.7073 3.89881 24.0079 3.47222 23.1895 3.1498C22.3958 2.84226 21.4881 2.62897 20.1538 2.56944C18.8145 2.51488 18.3879 2.5 14.995 2.5Z" fill="white"/>
<path d="M14.9951 8.58154C11.4534 8.58154 8.57643 11.4536 8.57643 15.0002C8.57643 18.5468 11.4485 21.4188 14.9951 21.4188C18.5417 21.4188 21.4137 18.5468 21.4137 15.0002C21.4137 11.4536 18.5417 8.58154 14.9951 8.58154ZM14.9951 19.1619C12.6935 19.1619 10.8284 17.2968 10.8284 14.9952C10.8284 12.6936 12.6935 10.8286 14.9951 10.8286C17.2967 10.8286 19.1617 12.6936 19.1617 14.9952C19.1617 17.2968 17.2967 19.1619 14.9951 19.1619Z" fill="white"/>
<path d="M21.6668 9.82122C22.4941 9.82122 23.1648 9.15054 23.1648 8.32321C23.1648 7.49588 22.4941 6.8252 21.6668 6.8252C20.8394 6.8252 20.1687 7.49588 20.1687 8.32321C20.1687 9.15054 20.8394 9.82122 21.6668 9.82122Z" fill="white"/>
</svg>
